X: 367
T: Avalon Quickstep, The
B: jims roots
M:4/4
L:1/8
R: reel
Q: 1/4=100
K:Dmaj
V:1 
|: FG | "D" ABAG FG A2 | "D" f2 [d4f4] FG | "D" ABAG FG A2 | "A" [c6a6] FG |
"D" ABAG FG A2 | "D" f2 [d4f4] ef | "G" gfed "A" cABc | "D" [F4d4]-[F2d2] :|
|: fg | "D" a2 faaf a2 | "G" b4 "A" [c4a4] | "D" f2 d4 ef | "G" gfed "A" cB A2 | "G" b4 "A" [c4a4] |
"D" a2 faaf a2 | "G" b4 "A" [c4a4] | "D" f2 [d4f4] ef | "G" gfed "A" cABc | "D" [F4d4]-[F2d2] :|
% abcbook-tune_id 6298c245619da2040775473d


% abcbook-boost 0
% abcbook-tablature 
% abcbook-transpose 
% abcbook-lastupdated 1654178373222
% abcbook-soundfonts 
% abcbook-repeats 1


